X:15153
T:Seamus Thompson's
R:Jig
S:Fisher Street
H:
N:
D:Fisher Street: Out in the Night
Z:Adrian Scahill
M:4/4
L:1/8
K:G
d2ge dBGB|cABG AGEG|D2B,D GABc|dggd (3efg ag|\
bgg2 dBGB|cABG AGEG|D2B,D G,B,DG|FGAc BGG2:||\
dG (3Bcd GBdg|bgg2 dBGB|c3A BcdB|(3cBA BG ABcd|\
bgg2 agef|g3e dBGB|cege dBB2|cAFA G4:||
